build/assets/img/about-us/designers-element-7.svg

<svg width="70" height="82" viewBox="0 0 70 82" fill="none" xmlns="http://www.w3.org/2000/svg">
<g clip-path="url(#clip0)">
<path d="M21.7984 49.1642C21.7984 41.8402 27.7879 35.9159 35.1355 36.0228C42.2288 36.1264 48.0035 41.9267 48.0793 49.021C48.1114 52.0579 47.1146 54.8597 45.4147 57.0995C43.0171 60.2614 41.5405 64.0111 41.2361 67.9413C41.1965 68.4435 41.1773 68.9489 41.1773 69.4565V72.5651H28.7003V69.6393C28.7003 69.0719 28.6779 68.5055 28.6319 67.9413C28.3189 64.0474 26.9288 60.2945 24.5314 57.1881C22.8177 54.9688 21.7984 52.1851 21.7984 49.1642Z" fill="#FFD042"/>
<path d="M28.6322 67.9413H41.2363C41.1968 68.4435 41.1776 68.9489 41.1776 69.4565V72.5651H28.7005V69.6393C28.7005 69.0719 28.6781 68.5055 28.6322 67.9413Z" fill="#FFB952"/>
<path d="M21.8 49.1642C21.8 43.5756 25.2873 38.8022 30.2053 36.9012C26.1496 39.1377 23.4027 43.4559 23.4027 48.4163C23.4027 51.4372 24.422 54.2208 26.1357 56.4403C28.8805 59.9965 30.3047 64.398 30.3047 68.8913V72.5651H28.7021V69.6393C28.7021 65.1459 27.2779 60.7444 24.533 57.1882C22.8194 54.9688 21.8 52.1851 21.8 49.1642Z" fill="#FFB952"/>
<path d="M38.0054 56.2206C38.4588 56.2206 38.8262 56.588 38.8262 57.0413V72.5649C38.8262 73.0182 38.4588 73.3857 38.0054 73.3857C37.5521 73.3857 37.1846 73.0183 37.1846 72.5649V57.0413C37.1847 56.5881 37.5521 56.2206 38.0054 56.2206Z" fill="#FFB952"/>
<path d="M31.9156 56.2206C32.3689 56.2206 32.7363 56.588 32.7363 57.0413V72.5649C32.7363 73.0182 32.3689 73.3857 31.9156 73.3857C31.4623 73.3857 31.0948 73.0183 31.0948 72.5649L31.0948 57.0413C31.0949 56.5881 31.4623 56.2206 31.9156 56.2206Z" fill="#FFB952"/>
<path d="M31.9168 59.2778C32.1268 59.2778 32.3369 59.3579 32.4972 59.5182C33.2713 60.2926 34.3245 59.5361 34.4422 59.4472C34.7688 59.2001 35.2319 59.2284 35.5218 59.5183C36.256 60.2527 37.4997 59.4495 37.5524 59.4151C37.9297 59.1672 38.4386 59.2694 38.6884 59.6456C38.9383 60.0219 38.8391 60.528 38.4644 60.7799C37.7398 61.2667 36.1772 61.8595 34.8922 61.0947C33.9654 61.5704 32.5131 61.8556 31.3367 60.6791C31.0162 60.3585 31.0162 59.8389 31.3367 59.5183C31.4968 59.3579 31.7069 59.2778 31.9168 59.2778Z" fill="#FFB952"/>
<path d="M28.3987 69.5442H41.521C42.1481 69.5442 42.6065 70.1362 42.4494 70.7431L42.1236 72.0019L40.1897 79.4755L39.7399 81.2141C39.6309 81.6373 39.2494 81.9333 38.8124 81.9333H31.108C30.671 81.9333 30.2896 81.6373 30.1796 81.2142L29.7298 79.4756L27.797 72.002L27.4712 70.7432C27.3141 70.1362 27.7725 69.5442 28.3987 69.5442Z" fill="#71A0DD"/>
<path d="M27.7966 72.0018H42.123L40.1892 79.4755H29.7294L27.7966 72.0018Z" fill="#0A3D76"/>
<path d="M27.6806 73.6049H42.2408C42.8175 73.6049 43.2852 74.0725 43.2852 74.6494V76.8284C43.2852 77.4052 42.8177 77.8729 42.2408 77.8729H27.6805C27.1038 77.8729 26.6362 77.4054 26.6362 76.8284V74.6494C26.6363 74.0726 27.1038 73.6049 27.6806 73.6049Z" fill="#B4D1FA"/>
<path d="M38.0042 40.0789C38.0791 40.0789 38.155 40.0892 38.2305 40.1108C43.5161 41.6242 44.4994 46.9449 44.5385 47.1707C44.6162 47.6173 44.3171 48.0422 43.8707 48.12C43.4249 48.1984 43.0005 47.8994 42.9219 47.4539C42.8876 47.2636 42.0568 42.9139 37.7787 41.689C37.343 41.5642 37.0908 41.1098 37.2156 40.6741C37.3188 40.3138 37.6474 40.0789 38.0042 40.0789Z" fill="#FCE581"/>
</g>
<g filter="url(#filter0_f)">
<path d="M30.102 34.2508L27.772 29.9486M19.5273 59.1677L10.5657 63.1114M17.735 51.1011C15.2258 51.1011 10.2073 51.3401 3.39648 51.1011M17.735 43.9308L7.33958 39.9871M21.6781 37.6567L16.1219 32.8167" stroke="#FCE581" stroke-width="2" stroke-linecap="round"/>
</g>
<g filter="url(#filter1_f)">
<path d="M39.7789 34.2508L42.1089 29.9486M50.3535 59.1677L59.3151 63.1114M52.1459 51.1011C54.6551 51.1011 59.6736 51.3401 66.4844 51.1011M52.1459 43.9308L62.5413 39.9871M48.2028 37.6567L53.7589 32.8167" stroke="#FCE581" stroke-width="2" stroke-linecap="round"/>
</g>
<path d="M10.5625 18.0703L10.5156 16.9219C11.9531 16.6875 12.8438 16.5625 13.1875 16.5469C13.2031 16.0156 13.2109 15.2188 13.2109 14.1562C13.2109 12.75 13.1797 10.7266 13.1172 8.08594C13.0547 5.42969 13.0156 3.67187 13 2.8125L10.6328 2.69531L10.4688 1.33594C11.1094 1.35156 12.1016 1.35938 13.4453 1.35938C14.8203 1.35938 15.8438 1.36719 16.5156 1.38281L16.5859 2.55469C16.3203 2.66406 15.9453 2.73437 15.4609 2.76562C14.9766 2.78125 14.6719 2.79688 14.5469 2.8125C14.5938 3.25 14.6172 4.35156 14.6172 6.11719C14.6328 7.88281 14.6406 9.83594 14.6406 11.9766C14.6406 14.1172 14.6562 15.6406 14.6875 16.5469C14.9375 16.5938 15.4141 16.6484 16.1172 16.7109C16.8203 16.7734 17.2578 16.8203 17.4297 16.8516L17.3828 18.0703C16.9141 18.0547 16.1719 18.0469 15.1562 18.0469C14.625 18.0469 13.8359 18.0469 12.7891 18.0469C11.7422 18.0625 11 18.0703 10.5625 18.0703ZM20.0594 17.8594L20.1297 0.9375C23.5984 0.96875 26.2781 1.85938 28.1687 3.60938C30.0594 5.34375 31.0047 7.89062 31.0047 11.25C31.0047 12.3281 30.7234 13.3125 30.1609 14.2031C29.5984 15.0938 28.8719 15.8047 27.9812 16.3359C27.1062 16.8672 26.1531 17.2812 25.1219 17.5781C24.1062 17.8594 23.0984 18 22.0984 18C21.4734 18 20.7937 17.9531 20.0594 17.8594ZM21.8172 16.4297H22.2156C23.1062 16.4297 23.9656 16.3281 24.7937 16.125C25.6219 15.9062 26.3875 15.5859 27.0906 15.1641C27.7937 14.7422 28.3562 14.1641 28.7781 13.4297C29.2 12.6797 29.4109 11.8203 29.4109 10.8516C29.4109 9.53906 29.0125 8.21094 28.2156 6.86719C27.4344 5.50781 26.4812 4.41406 25.3562 3.58594C24.2469 2.74219 23.2156 2.32031 22.2625 2.32031C22.0594 2.32031 21.8641 2.34375 21.6766 2.39062C21.6766 3.32812 21.7234 8.00781 21.8172 16.4297ZM42.1422 16.9453L42.3766 18C41.7672 18 40.6578 18.0234 39.0484 18.0703C37.4547 18.1328 36.2984 18.1641 35.5797 18.1641C34.4234 18.1641 33.6344 18.1094 33.2125 18C33.3687 16.2812 33.4625 13.4062 33.4937 9.375C33.525 5.34375 33.6266 2.53125 33.7984 0.9375C34.3297 0.984375 35.7359 1.02344 38.0172 1.05469C40.3141 1.08594 41.8141 1.15625 42.5172 1.26562L42.775 2.32031C42.0719 2.44531 40.6656 2.59375 38.5562 2.76562C36.4469 2.9375 35.3375 3.03125 35.2281 3.04688C35.2437 3.40625 35.275 4.14062 35.3219 5.25C35.3844 6.35938 35.4234 7.27344 35.4391 7.99219C35.9703 8.05469 36.9391 8.14844 38.3453 8.27344C39.7516 8.38281 40.6422 8.45312 41.0172 8.48438L41.2516 9.5625C37.9547 9.85938 36.025 10.0156 35.4625 10.0312C35.4625 10.7188 35.4469 11.7656 35.4156 13.1719C35.4 14.5625 35.3922 15.5859 35.3922 16.2422C38.9703 16.5703 41.2203 16.8047 42.1422 16.9453ZM49.8812 1.00781L51.6625 1.125C52.1 3.0625 52.9984 5.80469 54.3578 9.35156C55.7172 12.8828 56.6156 15.5234 57.0531 17.2734C57.0531 17.7266 56.975 18.0625 56.8187 18.2812C56.6625 18.5156 56.4672 18.6328 56.2328 18.6328C56.0297 18.6328 55.8344 18.5469 55.6469 18.375C55.475 18.2188 55.3578 17.9922 55.2953 17.6953C55.1547 17.0078 54.7016 15.6328 53.9359 13.5703C50.7172 13.1641 48.6937 12.9141 47.8656 12.8203C47.6625 13.3828 47.4125 14.2969 47.1156 15.5625C46.8187 16.8281 46.5844 17.7031 46.4125 18.1875C46.1781 18.4688 45.9125 18.6094 45.6156 18.6094C45.2875 18.6094 45.0062 18.4609 44.7719 18.1641C44.5375 17.8828 44.4203 17.5312 44.4203 17.1094C44.9203 15.2812 45.8266 12.5938 47.1391 9.04688C48.4516 5.5 49.3656 2.82031 49.8812 1.00781ZM50.7016 3.375C50.3891 5.26562 49.5219 8.03906 48.1 11.6953H50.725C51.9125 11.6953 52.9047 11.7344 53.7016 11.8125C52.0922 8.35938 51.0922 5.54687 50.7016 3.375Z" fill="black"/>
<defs>
<filter id="filter0_f" x="0.396484" y="26.9484" width="32.7057" height="39.1632" filterUnits="userSpaceOnUse" color-interpolation-filters="sRGB">
<feFlood flood-opacity="0" result="BackgroundImageFix"/>
<feBlend mode="normal" in="SourceGraphic" in2="BackgroundImageFix" result="shape"/>
<feGaussianBlur stdDeviation="1" result="effect1_foregroundBlur"/>
</filter>
<filter id="filter1_f" x="36.7793" y="26.9484" width="32.7057" height="39.1632" filterUnits="userSpaceOnUse" color-interpolation-filters="sRGB">
<feFlood flood-opacity="0" result="BackgroundImageFix"/>
<feBlend mode="normal" in="SourceGraphic" in2="BackgroundImageFix" result="shape"/>
<feGaussianBlur stdDeviation="1" result="effect1_foregroundBlur"/>
</filter>
<clipPath id="clip0">
<rect width="55.2033" height="55.2115" fill="white" transform="translate(62.543 81.9333) rotate(-180)"/>
</clipPath>
</defs>
</svg>

<svg width="70" height="82" fill="none" xmlns="http://www.w3.org/2000/svg"><g clip-path="url(#clip0)"><path d="M21.798 49.164c0-7.324 5.99-13.248 13.338-13.141 7.093.103 12.867 5.904 12.943 12.998a13.083 13.083 0 01-2.664 8.078c-2.398 3.162-3.874 6.912-4.179 10.842-.04.502-.059 1.008-.059 1.516v3.108H28.7V69.64c0-.567-.022-1.133-.068-1.698-.313-3.894-1.703-7.647-4.1-10.753a13.084 13.084 0 01-2.734-8.024z" fill="#FFD042"/><path d="M28.632 67.941h12.604c-.04.502-.058 1.008-.058 1.516v3.108H28.7V69.64c0-.567-.023-1.133-.069-1.698z" fill="#FFB952"/><path d="M21.8 49.164c0-5.588 3.487-10.362 8.405-12.263a13.137 13.137 0 00-6.802 11.515c0 3.021 1.019 5.805 2.733 8.024 2.745 3.556 4.169 7.958 4.169 12.451v3.674h-1.603V69.64c0-4.493-1.424-8.895-4.169-12.45a13.085 13.085 0 01-2.733-8.025zm16.205 7.056a.82.82 0 01.821.821v15.524a.82.82 0 11-1.641 0V57.04a.82.82 0 01.82-.82zm-6.089 0a.82.82 0 01.82.821v15.524a.82.82 0 11-1.641 0V57.04a.82.82 0 01.82-.82z" fill="#FFB952"/><path d="M31.917 59.278c.21 0 .42.08.58.24.774.775 1.828.018 1.945-.07a.826.826 0 011.08.07c.734.735 1.978-.069 2.03-.103a.823.823 0 011.136.23.82.82 0 01-.224 1.135c-.724.487-2.287 1.08-3.572.315-.927.475-2.379.76-3.555-.416a.82.82 0 01.58-1.401z" fill="#FFB952"/><path d="M28.399 69.544H41.52a.959.959 0 01.928 1.2l-.325 1.258-1.934 7.474-.45 1.738a.958.958 0 01-.928.72h-7.704a.96.96 0 01-.928-.72l-.45-1.738-1.933-7.474-.326-1.259a.959.959 0 01.928-1.199z" fill="#71A0DD"/><path d="M27.797 72.002h14.326l-1.934 7.474H29.73l-1.932-7.474z" fill="#0A3D76"/><path d="M27.68 73.605h14.56c.578 0 1.045.468 1.045 1.044v2.18c0 .576-.467 1.044-1.044 1.044H27.68a1.044 1.044 0 01-1.045-1.045V74.65c0-.576.468-1.044 1.045-1.044z" fill="#B4D1FA"/><path d="M38.004 40.079c.075 0 .151.01.227.032 5.285 1.513 6.268 6.834 6.307 7.06a.82.82 0 01-1.616.283c-.034-.19-.865-4.54-5.143-5.765a.82.82 0 01.225-1.61z" fill="#FCE581"/></g><g filter="url(#filter0_f)"><path d="M30.102 34.25l-2.33-4.301m-8.245 29.219l-8.961 3.943m7.169-12.01c-2.51 0-7.528.24-14.339 0m14.339-7.17L7.34 39.987m14.338-2.33l-5.556-4.84" stroke="#FCE581" stroke-width="2" stroke-linecap="round"/></g><g filter="url(#filter1_f)"><path d="M39.779 34.25l2.33-4.301m8.244 29.219l8.962 3.943m-7.17-12.01c2.51 0 7.529.24 14.34 0m-14.34-7.17l10.396-3.944m-14.338-2.33l5.556-4.84" stroke="#FCE581" stroke-width="2" stroke-linecap="round"/></g><path d="M10.563 18.07l-.047-1.148c1.437-.235 2.328-.36 2.671-.375.016-.531.024-1.328.024-2.39 0-1.407-.031-3.43-.094-6.071-.062-2.656-.101-4.414-.117-5.274l-2.367-.117-.164-1.36c.64.017 1.633.024 2.976.024 1.375 0 2.399.008 3.07.024l.07 1.172c-.265.11-.64.18-1.124.21a13.87 13.87 0 00-.914.047c.047.438.07 1.54.07 3.305.016 1.766.024 3.719.024 5.86 0 2.14.015 3.664.046 4.57.25.047.727.101 1.43.164.703.062 1.14.11 1.313.14l-.047 1.22a74.8 74.8 0 00-2.227-.024H12.79c-1.047.015-1.789.023-2.226.023zm9.496-.21L20.13.937c3.47.03 6.15.921 8.04 2.671 1.89 1.735 2.836 4.282 2.836 7.641a5.419 5.419 0 01-.844 2.953 6.463 6.463 0 01-2.18 2.133c-.875.531-1.828.945-2.86 1.242a11.288 11.288 0 01-3.023.422 16.32 16.32 0 01-2.039-.14zm1.758-1.43h.399c.89 0 1.75-.102 2.578-.305a8.815 8.815 0 002.297-.96c.703-.423 1.265-1 1.687-1.735.422-.75.633-1.61.633-2.578 0-1.313-.399-2.641-1.195-3.985-.782-1.36-1.735-2.453-2.86-3.281-1.11-.844-2.14-1.266-3.094-1.266a2.44 2.44 0 00-.585.07c0 .938.046 5.618.14 14.04zm20.325.515L42.377 18c-.61 0-1.72.023-3.329.07-1.593.063-2.75.094-3.468.094-1.157 0-1.946-.055-2.367-.164.156-1.719.25-4.594.28-8.625.032-4.031.134-6.844.305-8.438.532.047 1.938.086 4.22.118 2.296.03 3.796.101 4.5.21l.257 1.055c-.703.125-2.11.274-4.219.446-2.11.171-3.218.265-3.328.28l.094 2.204a84.74 84.74 0 01.117 2.742c.531.063 1.5.156 2.906.281 1.407.11 2.297.18 2.672.211l.235 1.079c-3.297.296-5.227.453-5.79.468 0 .688-.015 1.735-.046 3.14a296.873 296.873 0 00-.024 3.071c3.578.328 5.828.563 6.75.703zm7.74-15.937l1.78.117c.438 1.938 1.336 4.68 2.696 8.227 1.36 3.53 2.258 6.171 2.695 7.921 0 .454-.078.79-.234 1.008-.157.235-.352.352-.586.352-.203 0-.399-.086-.586-.258-.172-.156-.29-.383-.352-.68-.14-.687-.593-2.062-1.36-4.125a673.125 673.125 0 00-6.07-.75c-.203.563-.453 1.477-.75 2.742-.296 1.266-.53 2.141-.703 2.626-.234.28-.5.421-.796.421-.328 0-.61-.148-.844-.445-.234-.281-.352-.633-.352-1.055.5-1.828 1.407-4.515 2.72-8.062 1.312-3.547 2.226-6.227 2.741-8.04zm.82 2.367c-.313 1.89-1.18 4.664-2.602 8.32h2.625c1.188 0 2.18.04 2.977.117-1.61-3.453-2.61-6.265-3-8.437z" fill="#000"/><defs><filter id="filter0_f" x=".396" y="26.948" width="32.706" height="39.163" filterUnits="userSpaceOnUse" color-interpolation-filters="sRGB"><feFlood flood-opacity="0" result="BackgroundImageFix"/><feBlend in="SourceGraphic" in2="BackgroundImageFix" result="shape"/><feGaussianBlur stdDeviation="1" result="effect1_foregroundBlur"/></filter><filter id="filter1_f" x="36.779" y="26.948" width="32.706" height="39.163" filterUnits="userSpaceOnUse" color-interpolation-filters="sRGB"><feFlood flood-opacity="0" result="BackgroundImageFix"/><feBlend in="SourceGraphic" in2="BackgroundImageFix" result="shape"/><feGaussianBlur stdDeviation="1" result="effect1_foregroundBlur"/></filter><clipPath id="clip0"><path fill="#fff" transform="rotate(-180 31.272 40.967)" d="M0 0h55.203v55.212H0z"/></clipPath></defs></svg>
